!!!!SEGMENT: Mlu3004-Naymes_jamais_ces_gens.krn
!!!id: Mlu3004
!!!AGN: Chanson
!!!SCT: Bernstein (1984)
!!!voices: 3
!!!COM: Pierre Moulu
!!!OTL: N'aymés jamais ces gens
**kern	**kern	**kern
*part3	*part2	*part1
*staff3	*staff2	*staff1
*I"Bassus	*I"Tenor	*I"Superius
*I'B	*I'T	*I'S
*clefF4	*clefGv2	*clefGv2
*k[b-]	*k[b-]	*k[b-]
*F:	*F:	*F:
*M2/1	*M2/1	*M2/1
*met(C|)	*met(C|)	*met(C|)
=1	=1	=1
1A	0r	0r
[1B-y	.	.
=2	=2	=2
2B-]	0r	1r
2A	.	.
2F	.	1A
2A	.	.
=3	=3	=3
2.G	0r	1.B-y
8FL	.	.
8EJ	.	.
4D	.	.
4E	.	.
4F	.	2A
4G	.	.
=4	=4	=4
2A	0r	2F
2.F	.	2A
.	.	2G
8EL	.	.
8DJ	.	.
2E	.	2G
=5	=5	=5
1F	1r	4F
.	.	4G
.	.	4A
.	.	4B-y
2r	1A	2c
2D	.	[2d
=6	=6	=6
1.G	1.B-y	4d]
.	.	4c
.	.	4B-y
.	.	4A
.	.	2G
2F	2A	[2A
=7	=7	=7
2D	2F	4A]
.	.	4G
2F	2A	2.F
2C	2G	.
.	.	8EL
.	.	8DJ
2C	2G	2E
=8	=8	=8
2D	0F	1F
4BB-y	.	.
4C	.	.
4D	.	2r
4E	.	.
[2F	.	2F
=9	=9	=9
4F]	2r	2.c
8EL	.	.
8DJ	.	.
2E	2C	.
.	.	4c
2F	2.F	2c
2FF	.	2c
.	4F	.
=10	=10	=10
2.BB-y	2F	2d
.	2F	2.B-y
4BB-y	.	.
2BB-y	1G	.
.	.	4A
2BB-y	.	4G
.	.	4F
=11	=11	=11
2C	1G	1E
2C	.	.
1FF	[1A	2F
.	.	2C
=12	=12	=12
2r	1A]	2.F
2FF	.	.
.	.	4E
2BB-y	1r	2D
2AA	.	2C
=13	=13	=13
2GG	0r	2D
2FF	.	2.F
1GG	.	.
.	.	8EL
.	.	8DJ
.	.	2E
=14	=14	=14
1FF	2r	4F
.	.	4G
.	2F	4A
.	.	4B-y
2r	2.B-y	4G
.	.	4A
2BB-y	.	4B-y
.	4A	4c
=15	=15	=15
2BB-y	2G	4d
.	.	4e
2AA	2F	2.f
2BB-y	1G	.
.	.	8eL
.	.	8dJ
2C	.	2e
=16	=16	=16
1FF	[0F	2A
.	.	2.c
2r	.	.
.	.	4B-y
2FF	.	4A
.	.	4G
=17	=17	=17
2.BB-y	0F]	2F
.	.	2.B-y
4BB-y	.	.
2BB-y	.	.
.	.	4A
2BB-y	.	4G
.	.	4F
=18	=18	=18
2C	2r	2E
2C	2C	2.A
2.D	2.F	.
.	.	4G
.	.	4F
4C	4F	4E
=19	=19	=19
4BB-y	2F	4D
4AA	.	4C
2BB-y	2F	2.F
1GG	2G	.
.	.	8EL
.	.	8DJ
.	2G	2E
=20	=20	=20
4FF	1A	1F
4GG	.	.
4AA	.	.
4BB-y	.	.
4C	2G	2r
4FF	.	.
[2F	[2A	2F
=21	=21	=21
2F]	2A]	2.c
4E	4G	.
4D	4F	4c
2E	2G	2c
2F	[2c	2c
=22	=22	=22
1D	4c]	2d
.	8BnXiL	.
.	8AJ	.
.	2Bni	2d
1C	2.c	2.e
.	4B-y	4d
=23	=23	=23
2r	4A	4c
.	4G	4B-y
2AA	2A	1c
2.C	1E	.
.	.	4B-y
4C	.	4A
=24	=24	=24
2C	0r	1G
2BB-y	.	.
2AA	.	2r
[2D	.	2A
=25	=25	=25
4D]	0r	2.B-y
4C	.	.
4BB-y	.	.
4C	.	4B-y
4D	.	2B-y
4E	.	.
[2F	.	2A
=26	=26	=26
4F]	0r	1G
8EL	.	.
8DJ	.	.
2E	.	.
2.F	.	2F
.	.	[2A
8EL	.	.
8DJ	.	.
=27	=27	=27
2C	2r	4A]
.	.	4G
2.D	2A	4F
.	.	4E
.	2.B-y	4F
4C	.	4D
4BB-y	.	[2G
4AA	4B-y	.
=28	=28	=28
2GG	2B-y	4G]
.	.	4F
2AA	2A	1F
2BB-y	1G	.
2C	.	2E
=29	=29	=29
1FF	0F	2.F
.	.	4G
2r	.	4A
.	.	4B-y
2AA	.	[2c
=30	=30	=30
1.C	0r	2c]
.	.	4B-y
.	.	4A
.	.	2G
2BB-y	.	[2B-y
=31	=31	=31
2GG	1r	4B-]
.	.	4A
2C	.	1G
2BB-y	2r	.
2AA	2A	2F
=32	=32	=32
2GG	1.B-y	2.G
2G	.	.
.	.	4A
2.G	.	4B-y
.	.	4c
.	2A	[2d
4F	.	.
=33	=33	=33
2D	2F	4d]
.	.	4c
2F	2A	1c
2E	2G	.
2D	2F	2BnXi
=34	=34	=34
0C	[0G	1c
.	.	2r
.	.	2G
=35	=35	=35
2r	1G]	2.B-y
2GG	.	.
.	.	4A
2.BB-y	1r	2F
.	.	2B-y
4AA	.	.
=36	=36	=36
2FF	0r	2A
2AA	.	2.F
2GG	.	.
.	.	8EL
.	.	8DJ
2GG	.	2E
=37	=37	=37
1FF	2r	2F
.	2A	2c
1r	2.B-y	2.d
.	4A	4c
=38	=38	=38
2r	2F	2A
2FF	2A	2c
2.BB-y	2.G	2.B-y
4BB-y	8FL	8AL
.	8EJ	8GJ
=39	=39	=39
2BB-y	4D	2F
.	4C	.
2AA	2.F	2A
2BB-y	.	1G
.	8EL	.
.	8DJ	.
2C	2E	.
=40	=40	=40
2D	1F	1F
2.F	.	.
.	2r	2r
8EL	.	.
8DJ	.	.
2E	2C	2c
=41	=41	=41
1F	2.F	2.c
.	4F	4B-y
1r	2F	2A
.	2E	2G
=42	=42	=42
2r	2F	2F
2C	2G	2E
2.F	1A	1F
4E	.	.
=43	=43	=43
2D	2r	2r
2C	2A	2c
[1BB-y	2.B-y	2.d
.	4A	4c
=44	=44	=44
1BB-]	2G	2B-y
.	2.F	2A
1C	.	1G
.	8EL	.
.	8DJ	.
.	2E	.
=45	=45	=45
0FF	2F	2F
.	2C	2c
.	2.F	2.c
.	4F	4B-y
=46	=46	=46
1r	2F	2A
.	2E	2G
2r	2F	2F
2C	2G	2E
=47	=47	=47
2.F	1A	4F
.	.	4G
.	.	4A
4F	.	4B-y
2F	2r	4c
.	.	4d
2E	2G	[2c
=48	=48	=48
2F	2A	2c]
2G	2B-y	2B-y
1C	2G	1c
.	[2A	.
=49	=49	=49
2r	4A]	2r
.	4G	.
2AA	1F	2C
2BB-y	.	2D
2C	2E	2E
=50	=50	=50
2AA	1F	2C
2.BB-y	.	2.D
.	2r	.
4AA	.	4C
2FF	2A	[2F
=51	=51	=51
1GG	2.B-y	4F]
.	.	8EL
.	.	8DJ
.	.	2E
.	4B-y	.
1FF	2A	1F
.	2F	.
=52	=52	=52
2r	2G	2r
2C	2E	2A
2.D	1F	2.B-y
4D	.	4B-y
=53	=53	=53
2C	1r	2A
2BB-y	.	2G
2C	2r	2G
2AA	2A	2F#i
=54	=54	=54
4GG	2.B-y	1G
4AA	.	.
4BB-y	.	.
4C	4A	.
4D	2F	2r
4E	.	.
[2F	2A	2A
=55	=55	=55
4F]	2G	2.B-y
8EL	.	.
8DJ	.	.
2E	2G	.
.	.	4A
2F	1F	2F
2D	.	2A
=56	=56	=56
2.E-X	1r	2G
.	.	2G
4D	.	.
4BB-y	2r	1F
4C	.	.
2D	2A	.
=57	=57	=57
4GG	2B-y	2r
4AA	.	.
4BB-y	2A	2D
4C	.	.
4D	2F	2.F
4E	.	.
[2F	2A	.
.	.	4E
=58	=58	=58
4F]	2G	2C
8EL	.	.
8DJ	.	.
2E	2G	2E
2F	1F	2D
2D	.	2D
=59	=59	=59
2.E	2r	1C
.	2G	.
4D	.	.
2.BB-y	2.B-y	2r
.	.	2D
4C	4A	.
=60	=60	=60
2D	2F	2.F
2.AA	2A	.
.	.	4E
.	2G	2C
4BB-y	.	.
2C	2G	2E
=61	=61	=61
[0FFl	[0Fl	2D
.	.	2D
.	.	[1Cl
=62	=62	=62
00FF]	00F]	00C]
==	==	==
*-	*-	*-
!!!system-decoration: [*]
!!!RDF**kern: i = editorial accidental
!!!RDF**kern: l = terminal long
!!!ENC: Benjamin Ory
!!!END: 2023/11/3
!!!EED: Benjamin Ory
!!!EEV: 2023/11/03
!!!YEC: Copyright 2023 Benjamin Ory, All Rights Reserved
!!!ONB: Translated from MusicXML on 2023/11/03
